X: 3
T: Morgan Magan
R: reel
M: 4/4
L: 1/8
K: Gmaj
|:D2 | D2 G2 G2 A2 | cBAG Bc d2 |T e2 A2 A3G | GFEF D2EF |
G2 G2 GFGA | TG2 FE D2 G2 | FG A2 TA2 EG | TF2 D2 DEFD |
G4 AGAF | G4 G2 B2 | c3B AB c2 | d2 d2 e4 |
d2 B2 cBAG | AGFE D2 EF | G2 G2 AGAF | G6 ||
|:dc |B2 d2 d2 ef | g2 G2 Bc d2 | Tg2 G2 Bc d2 | edcB A3c |
BABc d2 B2 | Te2 c2 d2 B2 | c2 A2 d2 G2 | F2 D2 D4 |
Te2 c2 c3d | Te2 c2 c3e | Tf2 d2 d3e | Tf2 d2 d2Bc |
d2 B2 edcB | cBAG AGFE | D2G2 AGAF | G6 ||


Tune 6198	Setting 6198

